X: 36
T: No_18_Song_Before_Distribution_of_Gifts_(b).krn
N: Derived from No_18_Song_Before_Distribution_of_Gifts_(b).krn
%%abc-version 2.0
%%abcx-abcm2ps-target-version 5.9.1 (29 Sep 2008)
%%abc-creator hum2abc beta
%%abcx-conversion-date 2019/03/15 08:36:13
%%humdrum-veritas 964408667
%%humdrum-veritas-data 382393330
%%linebreak <none>
%%barnumbers 0
L: 1/8
M: 2/4
K: C clef=bass
[K:clef=bass][M:2/4].('C3/D/ (3CA,A, | 
(3CA,G, G,) z ||  
[M:3/4](3.('E,/G,G, C/A,3/ A,G, ||  
[M:2/4](3A,G,G, G,) z | 
(3.('E,/G,G,G,2 | 
G, z G,/G,/ z | 
G,2G,2 | 
A,/G,3/ G,) z ||  
[M:3/4](3:2:4.('E,/G,G,/ z/ C/A,3/ A,G, ||  
[M:2/4](3A,G,G, G,) z | 
(3.('E,/G,G,G,2 | 
G,2A,/A,/ z | 
B,3/C/ (3B,A,G, | 
(3B,A,G, G,) z ||  
[M:3/4](3.('E,/G,G, C/A,3/ A,/G,3/ ||  
[M:2/4](3A,G,G, G,) z | 
(3.('E,/G,G, A,/G,3/ | 
G, z G,/G,/) z | 
.('G,2G,2 | 
A,/G,3/ G, z ||  
E,3/G,/ G,3/G,/ | 
C3/A,/ A,3/G,/ | 
(3A,G,G, G,) z | 
(3.('E,/G,G, A,/G,3/ | 
G, z G,/G,/) z | 
.('G,2G,2 | 
A,/G,3/ G,) z :|]  
.('E,3/G,/ G,3/G,/ ||  
[M:3/4]B,3/A,/ A,3/A,/G,2 ||  
[M:2/4](3B,A,G,G,2 | 
(3E,G,G, A,/G,3/ | 
G,2)z .('G,/G,/ | 
G,2G,2 | 
A,/G,3/ G,) z |]  



